X:1
T:G major Daniel Read, 1793
T:Isaac Watts, 1719 (Psalm 2) 86. 86 (C.M.)
T:Adams No Copyright. Transcribed from The Columbia Harmonist, 1807.
%%score [ 1 2 3 4 ]
L:1/8
M:4/4
K:G
V:1 treble nm="Treble" snm="Tr."
V:2 treble nm="Counter" snm="C."
V:3 treble-8 nm="Tenor" snm="T."
V:4 bass nm="Bass" snm="B."
V:1
 B8 | G2 B2 d2 g2 | d4 e2 c2 | B6 B2 | d2 e2 d2 d2 | B4 B4 | B2 B2 G2 G2 | B4 (d3 e) | d6 d2 | %9
 e2 e2 e2 B2 | A8 |: z8 | z8 | %13
 z4"^The       Lord, who sits above the skies,    de  - rides their rage be -\nWith     humble love address His throne, For    if     He   frown, ye" d4 | %14
 B2 B2 B2 G2 | d2 d2 d4- | d4 d4 | B2 B2 B2 G2 | %18
"^- low,        He  speaks    with vengeance in His  eyes,     and        strikes -  -  -  -  -  -  -  -    their spi - rits  through.\n die:          Those  are      se - cure, and those alone,        Who       on  -  -  -  -  -  -  -  -  -  -     His grace  re  -  ly." A6 d2 | %19
 B6 d2 | g2 d2 B2 c2 | B4 G4 | (B3 A) Bdde | d2 c2 B4 | d4 d4- | d8 :| %26
V:2
"^1. Why  did  the nations  join  to        slay   the Lord's anointed Son? Why did they cast His laws a   -  way,  and\n2.  Be     wise, ye  rulers  of     the     earth,  Obey th'a-noint-ed  Lord, A  -  dore the King of heavenly  birth, and" G8 | %1
 D2 D2 D2 E2 | A4 (G2 F2) | G6 G2 | G2 G2 F2 D2 | D4 D4 | G2 D2 E2 C2 | D4 G4 | F6 D2 | %9
"^tread His gospel down?\n  tremble at His  word." G2 G2 G2 G2 | F8 |: z8 | z8 | z8 | %14
 z4"^The    Lord, who sits above the skies,            de  -\nWith   humble love address His throne,        For" D4 | %15
 G2 G2 G2 B2 | D2 D2 D4- | D4 D4 | %18
"^- rides their rage below, He speaks with vengeance in His eyes, and strikes  -  -  -  -  -  -     their spi - rits  through.\n  if  He frown, ye  die:    Those are secure, and those alone, Who   on -  -  -  -  -  -  -  -  -  - -   His grace  re  -  ly.-" D2 D2 D2 F2 | %19
 G6 F2 | G2 G2 G2 A2 | D2 (3(DE)F G2 G2 | (G2 D)G FEDC | B,2 E2 D4 | F4 G4- | G8 :| %26
V:3
 d8 | g2 d2 B2 G2 | A4 e4 | d6 d2 | B2 c2 B2 A2 | G4 B4 | d2 B2 e2 e2 | d4 B4 | A6 G2 | %9
 B2 B2 B2 G2 | d8 |: z8 | %12
 z4"^The   Lord, who sits above the skies,          de  -    rides    their    rage      be  -\nWith    humble love address His throne,    For       if           He    frown,   ye" d4 | %13
 B2 B2 B2 G2 | d2 d2 d4- | d4 B4 | A6 A2 | (G3 F) E4 | %18
"^- low,         He  speaks  with vengeance in His  eyes,     and          strikes  -  -  -  -  -  -  -      their spi - rits  through.\n die:           Those  are     se - cure, and those alone,       who          on  -  -  -  -  -  -  -  -  -  -    His  grace  re  -  ly." D6 D2 | %19
 G6 d2 | e2 d2 e2 f2 | g4 e4 | (d3 e) dBBA | B2 G2 B4 | A4 G4- | G8 :| %26
V:4
 G,8 | G,2 G,2 G,2 E,2 | D,4 C,4 | G,6 G,2 | G,2 C,2 D,2 D,2 | G,,4 G,4 | G,2 G,2 C2 C2 | B,4 G,4 | %8
 D,6 G,2 | E,2 E,2 E,2 G,2 | D,8 |: %11
 z4"^The Lord, who site above the skies,        de  -    rides  -  -  -  -  -  -      their  rage             be -\nWith humble love address His throne,   For      if                                He    frown,         ye" G,4 | %12
 G,2 G,2 G,2 B,2 | D2 D2 D4- | D4 B,4 | (G,8 | D,6) D,2 | G,6 E,2 | %18
"^- low,          He  speaks  with vengeance in His  eyes,      and        strikes  -  -  -  -  -  -  -  -   their spi - rits  through.\n  die:          Those  are      se - cure, and those alone,       who         on  -  -  -  -  -  -  -  -  -  -  -  His grace  re  -  ly." A,6 D,2 | %19
 E,6 D,2 | C2 B,2 (CB,) A,2 | G,4 C,4 | (B,,4 D,4) | D,2 (E,F,) G,4 | D,4 G,,4- | G,,8 :| %26

